!!!Rep U0661
!!!Isim(Name): Kara Yılan Der ki Harbe Tutuşak
!!!Yore(Region): Gaziantep
!!!Makam: Hüseyni
!!!Arizalar(Accidentals): b-2
!!!Usul: 5/8
**kern	**Dcent
*staff1	*.
*clefG2	*.
*k[]	*.
*M5/8	*.
16cc	0
16dd	0
16ee	0
16ee	0
eeq	0
ffq	0
eeq	0
ffq	0
4ee;	0
16ee	0
16r	.
=1	=1
16dd	0
16ee	0
16dd	0
16dd	0
ddq	0
eeq	0
ddq	0
eeq	0
4dd;	0
16ee	0
16r	.
=2	=2
16cc	0
16dd	0
16ee	0
16ee	0
eeq	0
ffq	0
eeq	0
ffq	0
4ee;	0
16ff	0
16dd	0
=3	=3
!!linebreak:default
16dd	0
16ee	0
16dd	0
[16dd	0
4dd;]	0
16ee	0
16cc	0
=4	=4
16cc	0
16dd	0
16dd	0
16dd	0
ccq	0
b-q	50
4cc	0
16dd	0
16r	.
=5	=5
16b	50
16cc	0
16cc	0
16b	50
bb-q	50
ccq	0
bb-q	50
ccq	0
4b;	0
8cc	0
=6	=6
!!linebreak:default
16a	0
16cc	0
16b	50
16a	0
4a	0
16a	0
16r	.
=7	=7
16b	50
16cc	0
16dd	0
16dd	0
ddq	0
eeq	0
ddq	0
eeq	0
4dd;	0
8ee	0
=8	=8
16cc	0
16dd	0
16dd	0
16cc	0
ccq	0
ddq	0
ccq	0
ddq	0
4cc;	0
8dd	0
=9	=9
!!linebreak:default
16b	50
16dd	0
16cc	0
16b	50
b-q	50
ccq	0
b-q	50
ccq	0
4b-;	50
8cc	0
aq	0
=10	=10
16b	50
16cc	0
16b	50
[16a	0
4a;]	0
8cc	0
aq	0
=11	=11
16a	0
16cc	0
16b	50
[16a	0
4a]	0
8a	0
=	=
*-	*-
!! Uzun Hava Humdrum Bilgi Bankasi (Uzun Hava Humdrum Database)
!! 
!! Sertan Senturk, Parag Chordia & Erdal Tugcular
!! Georgia Tech Center for Music Technology, 2011
